X:1
T:To Arms! To Arms! Ye Soldiers!
T:To Arms! To Arms! Ye Soldiers!
T:Ira David Sankey
T:Christopher Newman Hall, 1877
T:Public Domain Courtesy of the Cyber Hymnal™
C:Ira David Sankey
Z:Public Domain
Z:Courtesy of the Cyber Hymnal™
%%score ( 1 2 ) ( 3 4 )
L:1/8
M:6/8
K:Ab
V:1 treble 
V:2 treble 
V:3 bass 
V:4 bass 
V:1
 [CE] | [CA]2 [CA] [CA]2 [EB] | [Ec]3 [Ec]2 [EA] | [Ec]2 [Ec] [Ec]2 [EA] | [EB]3- [EB]2 [DE] | %5
w: 1.~To|arms! To arms! ye|sol- diers, The|trump- et call o-|bey! * A-|
w: 2.~’Tis|not to rest, or|ban- quet, Or|proud pa- rade we|go; * The|
w: 3.~A-|gainst the powers of|dark- ness With|fear- ful craft and|rage, * Our|
w: 4.~We’ll|bless Thee for the|bat- tle, We’ll|glo- ry in the|strife; * We’ll|
 [CA]2 [CA] [CA]2 [EB] | [Ec]3 [Ec]2 [Ec] | [EB]2 [FA] [EG]2 [=DF] | E3- E2 ||"^Refrain" E | %10
w: rise from drear- y|slum- bers To|watch, and fight, and|pray. *||
w: fight of faith is|fierc- er, Than|world- ly war- riors|know. *||
w: heaven- ly cap- tain|calls us In-|ces- sant war to|wage. *||
w: shout at call of|trump- et, We’ll|win e- ter- nal|life. *||
 [Ed]2 [Ed] (dc)[EB] | [Ec]3 [CA]2 [Ec] | [Ge]2 [Ge] [Ge]2 [Ed] | [Ec]3- [Ec]2 E | %14
w: ||||
w: ||||
w: ||||
w: ||||
 [DF]2 [DG] [CA]2 [EB] | [Ec]2 [Ad] !fermata![Ge]2 E | [DF]2 [Fd] [Ec]2 [DB] | [CA]3- [CA]2 |] %18
w: ||||
w: ||||
w: ||||
w: ||||
V:2
 x | x6 | x6 | x6 | x6 | x6 | x6 | x6 | E3- E2 || E | x3 E2 x | x6 | x6 | x5 E | x6 | x5 E | x6 | %17
 x5 |] %18
V:3
 [A,,A,] | [A,,E,]2 [A,,E,] [A,,E,]2 [E,G,] | A,3 A,2 [A,C] | [A,,A,]2 [A,,A,] [A,,A,]2 [C,A,] | %4
w: ~|~ ~ ~ ~|~ ~ ~|~ ~ ~ ~|
 [E,G,]3- [E,G,]2 [E,G,] | [A,,A,]2 [A,,E,] [A,,E,]2 [E,G,] | A,3 A,2 [A,,A,] | %7
w: ~ * ~|~ ~ ~ ~|~ ~ ~|
 [B,,G,]2 [B,,B,] [B,,B,]2 [B,,B,] | [E,G,]3- [E,G,]2 || E, | [E,B,]2 [E,B,] (B,A,)[E,G,] | %11
w: ~ ~ ~ ~|~ *|To|arms! to arms! * ye|
 A,3 A,2 A, | [E,B,]2 [E,B,] [E,B,]2 [E,B,] | A,3- A,2 [C,A,] | [D,A,]2 [B,,E,] (E,A,)[E,G,] | %15
w: sol- diers, The|trump- et call o-|bey! * With|Je- sus as * our|
 A,3 !fermata![E,B,]2 [C,A,] | [D,A,]2 [D,A,] [E,A,]2 [E,G,] | [A,,A,]3- [A,,A,]2 |] %18
w: lead- er, We’re|sure to win the|day. *|
V:4
 x | x6 | A,3 A,2 x | x6 | x6 | x6 | A,3 A,2 x | x6 | x5 || E, | x3 E,2 x | A,3 A,2 A, | x6 | %13
 A,3- A,2 x | x3 A,,2 x | (A,2 F,) x3 | x6 | x5 |] %18

